!!!OTL: M&auml;gdelein und Bettelmann (36b), S. 125
!!!id: T0163
**kern
*clefG2
*k[f#]
*G:
{8d
=1
8.g
16g
8g
8g
=2
4g
8r
8a
=3
8.b
16a
8b
8cc
=4
4b}
8r
=5
{8b
=6
8.b
16a
8b
8cc
=7
4dd
8d
8g
=8
8.f#
16f#
8e
8e
=9
4d}
=10
{4dd
=11
4dd
8dd
8cc
=12
4b
8dd
8ee
=13
4dd
8cc
8b
=14
4a}
8r
=15
{8dd
=16
8.g
16g
8g
8g
=17
8.a
16a
8dd
8cc
=18
4b
8a
8a
=19
4g}
8r
==
*-
!!!minrhy: 16
!!!meters: 2/4 ]  ZZ[4
!!!cut: M&auml;gdelein und Bettelmann (36b), S. 125
!!!reg: Luxemburg
!!!trd: Singendes Volk, Esch-Alzette 1937 posth.
!!!rhy1: X_  X_.XX_X_  X__0_X_  X_.XX_X_  X__0_
!!!rhy2: X_  X_.XX_X_  X__X_X_  X_.XX_X_  X__
!!!key: T0163  16  G 2/4 ]  ZZ[4
!!!mod: HEPTATONIK IONISCH]  AMBITUS[9
!!!kad: 3-521
!!!akz: 1133_35-7-5_5352_1231_
!!!fot: 'a__b__c__d__
!!!for: 'a__b__c__d__
!!!fok: '/__^d_Sd_Sd_
!! PHRAS[AUFTAKTIG]
!!!fkt: Liebeslieder
!!!bem: Boxhorn, mitgeteilt hhh H. Godefroid (Lehrer), ? 1900
!! THILL, Mathias:
!! PR[50] 2K[7] 2G[11] 3K[4] 3G[0] 4A[7] 4Ü[0] 5A[0] 6K[0] 6G[0]
!! 7K[0] 7G[0] 8A[0] MEHR[0] SI[28] ABS[46] SR[17] SP[11]
!! ST[12] 2k[2] 2g[7] 3k[13] 3g[0] 4d[0] 4ü[0] 5d[0] 6k[0] 6g[0]
!! 7k[0] 7g[0] 8d[0] mehr[0] si[22] dm[+6] sr[9] sp[13]
!! 1F[33] 2F[53] 3F[14] 4F[0] LF[0] 2P[0] 3P[0] 4P[0] TRI[0] DF[3] AB[49]
!! TF[0] U3K[0] U3[0] U4[0] U4Ü[0] U5[4] U6K[0] U6[2] U7K[0] U7[2]
!! N1[13] N2K[0] N2[19] N3K[0] N3[38] N4[6] N4Ü[0] N5[15] N6K[0] N6[0]
!!!n7k: 0] N7[0] O1[0] O2K[0] O2[0] O3K[0] O3[0] HÖ[0
!!!RNB: symbol: &auml;      = a umlaut  (UTF-8: Å„)
